public/logos/X3.svg

<?xml version="1.0" encoding="UTF-8"?>
<svg xmlns="http://www.w3.org/2000/svg" xmlns:xlink="http://www.w3.org/1999/xlink" width="176pt" height="59pt" viewBox="0 0 176 59" version="1.1">
<g id="surface1">
<rect x="0" y="0" width="176" height="59" style="fill:rgb(78.311157%,92.626953%,98.445129%);fill-opacity:1;stroke:none;"/>
<path style=" stroke:none;fill-rule:nonzero;fill:rgb(92.700195%,11.358643%,15.148926%);fill-opacity:1;" d="M 8.222656 25.296875 C 7.382812 25.34375 6.660156 25.371094 5.941406 25.425781 C 5.488281 25.457031 5.042969 25.535156 4.59375 25.585938 C 1.382812 25.949219 0.132812 24.472656 0.00390625 21.25 C -0.03125 20.433594 0.226562 19.578125 0.492188 18.785156 C 0.925781 17.480469 1.871094 16.761719 3.28125 16.734375 C 3.789062 16.722656 4.296875 16.71875 4.804688 16.71875 C 9.832031 16.714844 14.859375 16.714844 19.886719 16.71875 C 20.449219 16.71875 21.019531 16.726562 21.578125 16.78125 C 22.769531 16.902344 23.582031 17.59375 23.902344 18.703125 C 24.167969 19.613281 24.324219 20.582031 24.351562 21.53125 C 24.402344 23.308594 23.652344 24.101562 21.863281 24.289062 C 20.519531 24.433594 19.164062 24.511719 17.816406 24.625 C 17.320312 24.664062 16.824219 24.726562 16.203125 24.789062 C 16.730469 27.949219 17.464844 30.917969 18.703125 33.761719 C 19.949219 36.621094 21.488281 39.285156 23.605469 41.605469 C 26.722656 45.027344 30.453125 47.296875 35.15625 47.609375 C 37.964844 47.796875 40.640625 47.160156 43.148438 45.835938 C 46.933594 43.828125 49.894531 40.914062 52.164062 37.34375 C 53.757812 34.832031 55.066406 32.140625 56.507812 29.53125 C 56.914062 28.792969 57.273438 28.015625 57.769531 27.339844 C 58.828125 25.894531 59.84375 25.71875 61.800781 26.507812 C 63.375 27.144531 64.0625 28.160156 63.722656 29.820312 C 63.359375 31.574219 62.890625 33.324219 62.285156 35.011719 C 60.472656 40.035156 57.898438 44.636719 54.351562 48.660156 C 50.042969 53.546875 44.832031 56.917969 38.359375 58.125 C 33.132812 59.09375 28.378906 57.679688 24.007812 54.917969 C 18.886719 51.679688 15.554688 46.910156 13.011719 41.503906 C 11.132812 37.503906 9.867188 33.316406 8.910156 29.019531 C 8.65625 27.867188 8.476562 26.699219 8.222656 25.296875 "/>
<path style=" stroke:none;fill-rule:nonzero;fill:rgb(92.700195%,11.358643%,15.148926%);fill-opacity:1;" d="M 121.664062 37.601562 C 121.664062 39.582031 121.597656 41.5625 121.679688 43.535156 C 121.84375 47.578125 119.429688 50.144531 115.820312 50.867188 C 113.257812 51.378906 110.652344 51.414062 108.164062 50.351562 C 105.449219 49.1875 104.011719 47.085938 103.96875 44.164062 C 103.898438 39.53125 103.933594 34.894531 103.949219 30.261719 C 103.957031 28.941406 104.191406 28.746094 105.558594 28.652344 C 108.601562 28.441406 108.742188 28.570312 108.742188 31.550781 C 108.742188 35.222656 108.738281 38.894531 108.746094 42.570312 C 108.746094 43.074219 108.742188 43.59375 108.835938 44.085938 C 109.234375 46.21875 110.78125 47.183594 113.441406 47 C 115.558594 46.855469 116.773438 45.648438 116.820312 43.527344 C 116.867188 41.328125 116.828125 39.121094 116.828125 36.917969 C 116.828125 34.714844 116.8125 32.511719 116.835938 30.308594 C 116.851562 28.988281 117.105469 28.738281 118.417969 28.660156 C 119.039062 28.625 119.664062 28.621094 120.28125 28.671875 C 121.421875 28.769531 121.640625 28.984375 121.65625 30.144531 C 121.6875 32.292969 121.664062 34.4375 121.664062 36.585938 C 121.664062 36.925781 121.664062 37.265625 121.664062 37.601562 "/>
<path style=" stroke:none;fill-rule:nonzero;fill:rgb(92.700195%,11.358643%,15.148926%);fill-opacity:1;" d="M 93.328125 32.898438 C 93.328125 33.574219 93.328125 34.175781 93.328125 34.78125 C 93.328125 39.296875 93.328125 43.808594 93.328125 48.324219 C 93.328125 48.777344 93.425781 49.28125 93.257812 49.664062 C 93.074219 50.070312 92.664062 50.40625 92.28125 50.679688 C 92.082031 50.820312 91.734375 50.761719 91.453125 50.777344 C 88.570312 50.964844 88.339844 50.753906 88.339844 47.925781 C 88.339844 43.523438 88.339844 39.121094 88.339844 34.71875 C 88.339844 34.160156 88.339844 33.601562 88.339844 32.921875 C 87.832031 32.863281 87.40625 32.78125 86.976562 32.777344 C 85.566406 32.757812 84.152344 32.796875 82.742188 32.753906 C 81.746094 32.722656 81.585938 32.53125 81.582031 31.515625 C 81.578125 31.015625 81.625 30.496094 81.761719 30.019531 C 82.046875 29.035156 82.441406 28.765625 83.460938 28.699219 C 83.683594 28.683594 83.910156 28.695312 84.136719 28.695312 C 88.765625 28.695312 93.394531 28.691406 98.019531 28.695312 C 99.828125 28.699219 99.929688 28.792969 99.925781 30.238281 C 99.925781 32.246094 99.53125 32.738281 97.871094 32.765625 C 96.800781 32.785156 95.726562 32.761719 94.65625 32.773438 C 94.273438 32.78125 93.894531 32.84375 93.328125 32.898438 "/>
<path style=" stroke:none;fill-rule:nonzero;fill:rgb(92.700195%,11.358643%,15.148926%);fill-opacity:1;" d="M 66.003906 13.417969 C 62.5625 13.453125 59.589844 10.574219 59.527344 7.148438 C 59.46875 3.644531 62.441406 0.578125 65.902344 0.570312 C 69.285156 0.566406 72.273438 3.546875 72.308594 6.960938 C 72.34375 10.386719 69.421875 13.382812 66.003906 13.417969 "/>
<path style=" stroke:none;fill-rule:nonzero;fill:rgb(92.700195%,11.358643%,15.148926%);fill-opacity:1;" d="M 126.980469 39.671875 C 126.980469 36.628906 126.96875 33.585938 126.980469 30.539062 C 126.988281 28.894531 127.179688 28.679688 128.828125 28.648438 C 131.472656 28.601562 132.007812 28.484375 131.921875 31.707031 C 131.765625 37.285156 131.902344 42.871094 131.914062 48.453125 C 131.917969 48.847656 131.933594 49.242188 131.886719 49.632812 C 131.804688 50.261719 131.441406 50.652344 130.789062 50.71875 C 130.507812 50.75 130.226562 50.777344 129.945312 50.789062 C 127.171875 50.925781 126.980469 50.742188 126.980469 47.964844 C 126.980469 45.199219 126.980469 42.4375 126.980469 39.671875 "/>
<path style=" stroke:none;fill-rule:nonzero;fill:rgb(12.571716%,17.784119%,34.770203%);fill-opacity:1;" d="M 164.136719 56.839844 C 164.859375 55.171875 165.519531 53.636719 166.1875 52.101562 C 166.414062 51.585938 166.628906 51.0625 166.914062 50.578125 C 167.433594 49.703125 167.289062 48.914062 166.851562 48.039062 C 165.191406 44.71875 163.582031 41.371094 161.960938 38.03125 C 161.742188 37.582031 161.5625 37.113281 161.371094 36.664062 C 162.960938 35.597656 164.1875 35.917969 164.898438 37.480469 C 165.972656 39.835938 167.070312 42.175781 168.171875 44.519531 C 168.355469 44.90625 168.617188 45.257812 168.949219 45.796875 C 169.835938 43.847656 170.648438 42.070312 171.449219 40.285156 C 171.84375 39.414062 172.203125 38.527344 172.601562 37.65625 C 173.402344 35.910156 173.847656 35.746094 176 36.421875 C 175.949219 36.671875 175.945312 36.953125 175.835938 37.191406 C 173.078125 43.351562 170.308594 49.507812 167.539062 55.664062 C 166.761719 57.394531 166.351562 57.5625 164.136719 56.839844 "/>
<path style=" stroke:none;fill-rule:nonzero;fill:rgb(12.571716%,17.784119%,34.770203%);fill-opacity:1;" d="M 145.894531 50.542969 C 145.894531 46.554688 145.894531 42.625 145.894531 38.605469 C 144.96875 38.507812 144.210938 38.425781 143.480469 38.347656 C 143.148438 36.332031 143.167969 36.308594 145.730469 35.984375 C 145.773438 35.582031 145.839844 35.148438 145.863281 34.714844 C 145.910156 33.925781 145.855469 33.125 145.976562 32.347656 C 146.261719 30.476562 147.199219 29.039062 149.113281 28.546875 C 151.125 28.027344 153.113281 28.035156 155.0625 29.414062 C 154.785156 30.066406 154.535156 30.652344 154.242188 31.335938 C 153.578125 31.125 153.058594 30.941406 152.527344 30.800781 C 150.140625 30.164062 148.78125 31.15625 148.699219 33.597656 C 148.671875 34.378906 148.695312 35.15625 148.695312 36.128906 C 149.496094 36.128906 150.15625 36.128906 150.816406 36.128906 C 151.488281 36.128906 152.160156 36.128906 152.789062 36.128906 C 153.3125 37.953125 152.996094 38.417969 151.296875 38.457031 C 150.511719 38.472656 149.726562 38.460938 148.820312 38.460938 C 148.769531 38.980469 148.6875 39.40625 148.6875 39.839844 C 148.675781 42.773438 148.679688 45.710938 148.679688 48.648438 C 148.679688 50.875 148.519531 50.996094 145.894531 50.542969 "/>
<path style=" stroke:none;fill-rule:nonzero;fill:rgb(12.571716%,17.784119%,34.770203%);fill-opacity:1;" d="M 156.382812 50.519531 C 156.382812 49.90625 156.382812 49.351562 156.382812 48.796875 C 156.382812 42.707031 156.378906 36.613281 156.382812 30.519531 C 156.382812 28.398438 156.664062 28.167969 159.089844 28.460938 C 159.117188 28.96875 159.167969 29.511719 159.167969 30.054688 C 159.171875 36.257812 159.171875 42.464844 159.171875 48.667969 C 159.171875 50.851562 158.953125 51.015625 156.382812 50.519531 "/>
</g>
</svg>

<svg xmlns="http://www.w3.org/2000/svg" width="176pt" height="59pt" viewBox="0 0 176 59"><path d="M0 0h176v59H0z" style="fill:#c8ecfb;fill-opacity:1;stroke:none"/><path d="M8.223 25.297c-.84.047-1.563.074-2.282.129-.453.031-.898.11-1.347.16-3.211.363-4.461-1.113-4.59-4.336-.035-.816.223-1.672.488-2.465.434-1.305 1.38-2.023 2.79-2.05a66 66 0 0 1 1.523-.016 9706 9706 0 0 1 15.082 0c.562 0 1.133.008 1.691.062 1.192.121 2.004.813 2.324 1.922.266.91.422 1.879.45 2.828.05 1.778-.7 2.57-2.489 2.758-1.343.145-2.699.223-4.047.336-.496.04-.992.102-1.613.164.527 3.16 1.262 6.129 2.5 8.973 1.246 2.86 2.785 5.523 4.902 7.843 3.118 3.422 6.848 5.692 11.551 6.004 2.809.188 5.485-.449 7.992-1.773 3.786-2.008 6.747-4.922 9.016-8.492 1.594-2.512 2.902-5.203 4.344-7.813.406-.738.765-1.515 1.262-2.191 1.058-1.445 2.074-1.621 4.03-.832 1.575.637 2.263 1.652 1.923 3.312a38.6 38.6 0 0 1-1.438 5.192c-1.812 5.023-4.387 9.625-7.933 13.648-4.309 4.887-9.52 8.258-15.993 9.465-5.226.969-9.98-.445-14.351-3.207-5.121-3.238-8.453-8.008-10.996-13.414-1.88-4-3.145-8.188-4.102-12.484-.254-1.153-.433-2.32-.687-3.723M121.664 37.602c0 1.98-.066 3.96.016 5.933.164 4.043-2.25 6.61-5.86 7.332-2.562.512-5.168.547-7.656-.515-2.715-1.164-4.152-3.266-4.195-6.188-.07-4.633-.035-9.27-.02-13.902.008-1.32.242-1.516 1.61-1.61 3.043-.21 3.183-.082 3.183 2.899 0 3.672-.004 7.344.004 11.02 0 .503-.004 1.023.09 1.515.398 2.133 1.945 3.098 4.605 2.914 2.118-.145 3.332-1.352 3.38-3.473.046-2.199.007-4.406.007-6.609s-.016-4.406.008-6.61c.016-1.32.27-1.57 1.582-1.648a13.5 13.5 0 0 1 1.863.012c1.14.098 1.36.312 1.375 1.473.031 2.148.008 4.293.008 6.44zM93.328 32.898v15.425999999999998c0 .453.098.957-.07 1.34-.184.406-.594.742-.977 1.016-.199.14-.547.082-.828.097-2.883.188-3.113-.023-3.113-2.851V32.922c-.508-.059-.934-.14-1.363-.145-1.41-.02-2.825.02-4.235-.023-.996-.031-1.156-.223-1.16-1.238-.004-.5.043-1.02.18-1.496.285-.985.68-1.254 1.699-1.32.223-.016.45-.005.676-.005 4.629 0 9.258-.004 13.883 0 1.808.004 1.91.098 1.906 1.543 0 2.008-.395 2.5-2.055 2.528-1.07.02-2.144-.004-3.215.007-.383.008-.761.07-1.328.125M66.004 13.418c-3.442.035-6.414-2.844-6.477-6.27C59.47 3.645 62.441.578 65.902.57c3.383-.004 6.371 2.977 6.407 6.39.035 3.427-2.887 6.423-6.305 6.458M126.98 39.672c0-3.043-.011-6.086 0-9.133.008-1.644.2-1.86 1.848-1.89 2.645-.047 3.18-.165 3.094 3.058-.156 5.578-.02 11.164-.008 16.746.004.395.02.79-.027 1.18-.082.629-.446 1.02-1.098 1.086a12 12 0 0 1-.844.07c-2.773.137-2.965-.047-2.965-2.824z" style="stroke:none;fill-rule:nonzero;fill:#ec1d27;fill-opacity:1"/><path d="M164.137 56.84c.722-1.668 1.383-3.203 2.05-4.738.227-.516.442-1.04.727-1.524.52-.875.375-1.664-.062-2.539-1.66-3.32-3.27-6.668-4.891-10.008-.219-.449-.399-.918-.59-1.367 1.59-1.066 2.816-.746 3.527.816a676 676 0 0 0 3.274 7.04c.183.386.445.738.777 1.277.887-1.95 1.7-3.727 2.5-5.512.395-.87.754-1.758 1.153-2.629.8-1.746 1.246-1.91 3.398-1.234-.05.25-.055.531-.164.77-2.758 6.16-5.527 12.316-8.297 18.472-.777 1.73-1.187 1.898-3.402 1.176M145.895 50.543V38.605c-.926-.097-1.684-.18-2.415-.257-.332-2.016-.312-2.04 2.25-2.364.043-.402.11-.836.133-1.27.047-.788-.008-1.589.114-2.366.285-1.871 1.222-3.309 3.136-3.801 2.012-.52 4-.512 5.95.867l-.82 1.922c-.665-.211-1.184-.395-1.716-.535-2.386-.637-3.746.355-3.828 2.797-.027.78-.004 1.558-.004 2.53h4.094c.524 1.825.207 2.29-1.492 2.329-.785.016-1.57.004-2.477.004-.05.52-.132.945-.132 1.379-.012 2.933-.008 5.87-.008 8.808 0 2.227-.16 2.348-2.785 1.895M156.383 50.52v-1.723c0-6.09-.004-12.184 0-18.277 0-2.122.281-2.352 2.707-2.06.027.509.078 1.052.078 1.595q.005 9.307.004 18.613c0 2.184-.219 2.348-2.79 1.852" style="stroke:none;fill-rule:nonzero;fill:#202d59;fill-opacity:1"/></svg>
